X: 18
P: No. XVIII.
M: 6/8
L: 1/8
K: G
V: 1
|:\
ecA Ace | e3 c3 | dBG GBd | d3 B3 |\
ecA Ace | a3 {bc'}Tf3 | gdB cAF | G3- G3 :|
V: 2 clef=bass middle=d
|:\
g3 g3 | d3 g3 | d3 c'3 | f2d g3 |\
a3 a3 | aec Ace | g6- | gdB GBd |\
a6- | a3 A3 | B2G d2D | G3- G3 :|

